X: 25
T: Ripple   [G,w]
C: music: Jerry Garcia
C: words: Robert Hunter
R: air
Z: 2020 John Chambers <jc:trillian.mit.edu>
M: 2/4
L: 1/16
K: G
%%continueall
"G"z8 | "D"z8 | "C"z8 | "Am"z4 "G"z4 [| "G"z2B,>B, B,2C2 |: D2 z6 | z2GG (3(B2A2)B2 | "C"G4 E4 |
w: If my words did glow with the gold* of sun-shine
w: | | | | | hand if your cup* be emp-ty,
z4 E2E2 | G4 z2 A2 | G2z2 (D2E2) | G2z2 {D}E4 | "G"D2B,>B, C2^C2 |
w: and my tunes were played on the harp un-strung, Would you hear my
w: if your cup is full, may it be a-gain. Let* it be
D4 z4 | z2G2 (3(B2A2B2) | "C"G4 E4 |
w: voice come through* the mu-sic?
w: known there is* a foun-tain
z8 | "G"B2B2 B2c2 | "D"A4 z4 | "C"E2G2 G2A2 |
w: Would you hold it near, as it were your
w: that ~ was not made by the hands of
G2 B,>B, B,2C2 || D4 z4 | z2G2 (3(B2A2B2) |
w: own? It's a hand-me-down, the thoughts* are
w: men. There* is a road, no sim-*ple
"C"G4 E4 | z6 E2 | G4 z2 A2 | G2E2 E2E2 |
w: bro-ken; per-haps they're bet-ter**
w: high-way be-tween the dawn* and the
G4 E4 | "G"D2B,2 B,2C2 | D2 z6 | z2G2 (3(B2A2B2) | "C"(G4 E2)z2 | z8 | "G"B2z2 B2c2 | "D"A2 z6 |
w: left un-sung. ~ I don't know, don't real-*ly care.* Let there be songs
w: dark of night. And if you go, no one* may fol-low, That path is for
"C"z2E2 G2A2 | "G"G8 | "F#"z4 "G7"z4 | "Am"A4 G4 | A2 G4 A2 | "D7"(F2E2) D4 | z4 E2F2 | "G"G2A2 G2D2 |
w: to fill the air. Rip-ple in* still wa-*ter; when there is no peb-ble
w: your steps a-lone.
"C"E2 z4 G2 | "A"G4 F4 |[1 "D"D2B,2 C2^C2 :||2 "D"D2z2 B,2 C2 | "G"D4 z4 | z2G2 (3(B2A2)B2 |
w: tossed, nor wind to blow. Reach out your | blow. You who choose to lead* must
"C"G4 E4 | z6 E2 | G2 z4 A2 | G2z2 E4 | G4 E4 | "G"D2 B,2 C2^C2 | D4 z4 |
w: fol-low, but if you fall, you fall a-lone. If you should stand,
z2G2 (3(B2A2)B2 | "C"G4 E4 | z8 | "G"BB3 B2c2 | "D"A4 z4 | "C"E2G2 G2A2 |
w: then who's* to guide you? If I knew the way I would take you
"G"G2 B,>B,B,2C2 | D2z6 | z2G2 (3(B2A2)B2 | "C"G4 E2z2 | z4 zE (3EFG- | G2 z4 A2 | G2z3 G A2 | G4 E3D- |
w: home. La dee da da da, la da* da da da, da da da da,* da da, da da da da da,
D2B,2 B,2C2 | D2 z | z2G2 (3(B2A2)B2 | "C"G4 E2z2 | z4 | B4 B2c2 | "D"A2 z6 | "C"EG3 G2A2 | "G"HG4 |]
w: ~ La da da da, la da* da da da, La da da da, la da da da da.
%%text Basic version; play with fluid rhythm and lots of anticipation.

